packages/ui-icons/svg/Line/circle-arrow-up.svg

<svg viewBox="0 0 1920 1920" version="1.1" xmlns="http://www.w3.org/2000/svg">
    <path d="M1559.23847,1559.23847 C1889.69851,1228.77843 1889.69851,691.221573 1559.23847,360.761532 C1228.77843,30.3014919 691.221573,30.3014919 360.761532,360.761532 C30.3014919,691.221573 30.3014919,1228.77843 360.761532,1559.23847 C691.221573,1889.69851 1228.77843,1889.69851 1559.23847,1559.23847 Z M280.86307,280.86307 C655.347163,-93.6210233 1264.65284,-93.6210233 1639.13693,280.86307 C2013.62102,655.347163 2013.62102,1264.65284 1639.13693,1639.13693 C1264.65284,2013.62102 655.347163,2013.62102 280.86307,1639.13693 C-93.6210233,1264.65284 -93.6210233,655.347163 280.86307,280.86307 Z M640.406151,880.101538 L560.507688,800.203075 L960,400.710763 L1359.49231,800.203075 L1279.59385,880.101538 L1016.48821,616.995901 L1016.56811,1439.39077 L903.431889,1439.39077 L903.511787,616.995901 L640.406151,880.101538 Z" stroke="none" stroke-width="1" fill-rule="evenodd"/>
</svg>

<svg viewBox="0 0 1920 1920" xmlns="http://www.w3.org/2000/svg">
    <path d="M1559.238 1559.238c330.46-330.46 330.46-868.016 0-1198.476-330.46-330.46-868.016-330.46-1198.476 0-330.46 330.46-330.46 868.016 0 1198.476 330.46 330.46 868.016 330.46 1198.476 0ZM280.863 280.863c374.484-374.484 983.79-374.484 1358.274 0 374.484 374.484 374.484 983.79 0 1358.274-374.484 374.484-983.79 374.484-1358.274 0-374.484-374.484-374.484-983.79 0-1358.274Zm359.543 599.239-79.898-79.899L960 400.711l399.492 399.492-79.898 79.899-263.106-263.106.08 822.395H903.432l.08-822.395-263.106 263.106Z" fill-rule="evenodd"/>
</svg>
